symbols-de/shields/motorway_9x4.svg

<?xml version="1.0" encoding="UTF-8" standalone="no"?>
<svg
   xmlns:dc="http://purl.org/dc/elements/1.1/"
   xmlns:cc="http://creativecommons.org/ns#"
   xmlns:rdf="http://www.w3.org/1999/02/22-rdf-syntax-ns#"
   xmlns:svg="http://www.w3.org/2000/svg"
   xmlns="http://www.w3.org/2000/svg"
   xmlns:sodipodi="http://sodipodi.sourceforge.net/DTD/sodipodi-0.dtd"
   xmlns:inkscape="http://www.inkscape.org/namespaces/inkscape"
   width="100%"
   height="100%"
   viewBox="0 0 63.0 42.0"
   id="svg2"
   version="1.1"
   inkscape:version="0.91 r13725"
   sodipodi:docname="autobahn_9x4.svg">
  <metadata
     id="metadata9">
    <rdf:RDF>
      <cc:Work
         rdf:about="">
        <dc:format>image/svg+xml</dc:format>
        <dc:type
           rdf:resource="http://purl.org/dc/dcmitype/StillImage" />
        <dc:title></dc:title>
      </cc:Work>
    </rdf:RDF>
  </metadata>
  <defs
     id="defs7" />
  <sodipodi:namedview
     pagecolor="#ffffff"
     bordercolor="#666666"
     borderopacity="1"
     objecttolerance="10"
     gridtolerance="10"
     guidetolerance="10"
     inkscape:pageopacity="0"
     inkscape:pageshadow="2"
     inkscape:window-width="1180"
     inkscape:window-height="768"
     id="namedview5"
     showgrid="false"
     inkscape:zoom="5.6031746"
     inkscape:cx="31.5"
     inkscape:cy="21"
     inkscape:window-x="586"
     inkscape:window-y="135"
     inkscape:window-maximized="0"
     inkscape:current-layer="svg2" />
  <path
     style="fill:#365eaf;fill-opacity:1;stroke:#0528a2;stroke-width:1;stroke-miterlimit:4;stroke-dasharray:none;stroke-opacity:1"
     d="m 31.5,0.499999 c -0.444442,0 -0.666016,0.0033 -0.666016,0.01172 L 1.50135,2.28125 C 0.834683,2.3661 0.5,2.494363 0.5,2.664063 c 0,12.223958 0,24.447916 0,36.671875 0,0.169699 0.334683,0.297965 1.00135,0.382812 l 29.332634,1.76953 c 0,0.0085 0.221578,0.01172 0.666016,0.01172 0.444444,0 0.666016,-0.0033 0.666016,-0.01172 L 61.498648,39.718749 C 62.165317,39.633899 62.5,39.505636 62.5,39.335937 c 0,-12.223958 0,-24.447917 0,-36.671875 0,-0.1697 -0.334683,-0.297965 -1.001352,-0.382813 L 32.166016,0.511718 c 0,-0.0085 -0.221579,-0.01172 -0.666016,-0.01172 z"
     id="path6"
     inkscape:connector-curvature="0"
     sodipodi:nodetypes="sccccccsccccccs" />
</svg>

<?xml version="1.0" encoding="UTF-8"?>
<svg xmlns="http://www.w3.org/2000/svg" xmlns:xlink="http://www.w3.org/1999/xlink" width="65pt" height="54pt" viewBox="0 0 65 54" version="1.1">
<g id="surface1">
<path style="fill-rule:nonzero;fill:rgb(21.176471%,36.862745%,68.627451%);fill-opacity:1;stroke-width:1;stroke-linecap:butt;stroke-linejoin:miter;stroke:rgb(1.960784%,15.686275%,63.529412%);stroke-opacity:1;stroke-miterlimit:4;" d="M 31.5 0.501302 C 31.057031 0.501302 30.833654 0.50434 30.833654 0.510417 L 1.503065 2.281684 C 0.832933 2.366753 0.49976 2.494358 0.49976 2.664497 C 0.49976 14.887153 0.49976 27.112847 0.49976 39.335503 C 0.49976 39.505642 0.832933 39.633247 1.503065 39.718316 L 30.833654 41.489583 C 30.833654 41.49566 31.057031 41.498698 31.5 41.498698 C 31.942969 41.498698 32.166346 41.49566 32.166346 41.489583 L 61.496935 39.718316 C 62.167067 39.633247 62.50024 39.505642 62.50024 39.335503 C 62.50024 27.112847 62.50024 14.887153 62.50024 2.664497 C 62.50024 2.494358 62.167067 2.366753 61.496935 2.281684 L 32.166346 0.510417 C 32.166346 0.50434 31.942969 0.501302 31.5 0.501302 Z M 31.5 0.501302 " transform="matrix(1.031746,0,0,1.285714,0,0)"/>
</g>
</svg>
